svg/color/akro.svg

<svg width="64" height="65" viewBox="0 0 64 65" fill="none" xmlns="http://www.w3.org/2000/svg">
<rect y="0.303711" width="64" height="64" rx="32" fill="white"/>
<rect x="0.5" y="0.803711" width="63" height="63" rx="31.5" stroke="#070B14" stroke-opacity="0.15"/>
<path d="M31.9199 58.8826C30.6212 58.8826 29.3226 58.5255 28.1863 57.8761L11.5962 48.2987C9.2587 46.9351 7.8302 44.4677 7.8302 41.7731V22.6182C7.8302 19.956 9.2587 17.4561 11.5638 16.125L28.1863 6.54758C30.4914 5.21648 33.3484 5.21648 35.6859 6.54758L52.276 16.125C54.581 17.4561 56.0095 19.956 56.0095 22.6182V41.8055C56.0095 44.4677 54.581 46.9676 52.276 48.2987L35.6859 57.8761C34.5171 58.5255 33.251 58.8826 31.9199 58.8826ZM31.9199 8.13841C31.0758 8.13841 30.2316 8.36567 29.4849 8.78773L12.8624 18.3976C11.3365 19.2742 10.4275 20.8975 10.4275 22.6182V41.8055C10.4275 43.5587 11.369 45.1495 12.8624 46.0261L29.4525 55.636C30.9784 56.5126 32.8289 56.5126 34.3548 55.636L50.9449 46.0586C52.4383 45.182 53.3798 43.5912 53.3798 41.838V22.6182C53.3798 20.865 52.4383 19.2417 50.9449 18.3976L34.3873 8.78773C33.6406 8.36567 32.7964 8.13841 31.9199 8.13841ZM31.9199 50.1817C31.2056 50.1817 30.5238 49.9869 29.907 49.6298L17.8297 42.6821C16.596 41.9679 15.8168 40.6368 15.8168 39.1758V25.2479C15.8168 23.8194 16.5635 22.4883 17.8297 21.7416L29.907 14.7939C31.1732 14.0797 32.6991 14.0797 33.9328 14.7939L45.9776 21.7416C47.2113 22.4559 47.9905 23.787 47.9905 25.2479V39.1758C47.9905 40.6043 47.2113 41.9679 45.9776 42.6821L33.9003 49.6298C33.3159 49.9869 32.6341 50.1817 31.9199 50.1817ZM31.9199 16.1899C31.5627 16.1899 31.2056 16.2873 30.881 16.4821L18.8037 23.4298C18.1543 23.8194 17.7648 24.5012 17.7648 25.2479V39.1758C17.7648 39.9225 18.1543 40.6043 18.8037 40.9939L30.881 47.9416C31.5303 48.3312 32.3095 48.3312 32.9588 47.9416L45.0036 40.9939C45.6529 40.6043 46.0425 39.9225 46.0425 39.1758V25.2479C46.0425 24.5012 45.6529 23.8194 45.0036 23.4298L32.9588 16.4821C32.6666 16.2873 32.3095 16.1899 31.9199 16.1899ZM31.9199 41.351C31.5627 41.351 31.2056 41.2536 30.881 41.0913L24.7774 37.52C24.1281 37.1629 23.7385 36.4487 23.7385 35.7344V28.6568C23.7385 27.9101 24.1281 27.2283 24.7774 26.8712L30.881 23.3324C31.5303 22.9753 32.3095 22.9753 32.9588 23.3324L39.0624 26.8712C39.7117 27.2283 40.1013 27.9101 40.1013 28.6568V35.7344C40.1013 36.4811 39.7117 37.1629 39.0624 37.52L32.9588 41.0588C32.6341 41.2536 32.277 41.351 31.9199 41.351ZM31.9199 24.3714C31.79 24.3714 31.6601 24.4038 31.5303 24.4687L25.4267 28.0075C25.1994 28.1374 25.0371 28.3971 25.0371 28.6568V35.7344C25.0371 35.9941 25.1994 36.2539 25.4267 36.4162L31.5303 39.955C31.7575 40.0848 32.0497 40.0848 32.3095 39.955L38.413 36.4162C38.6403 36.2863 38.8026 35.9941 38.8026 35.7344V28.6568C38.8026 28.3971 38.6403 28.1374 38.413 28.0075L32.3095 24.4687C32.1796 24.4038 32.0497 24.3714 31.9199 24.3714Z" fill="url(#paint0_linear_11313_1808)"/>
<defs>
<linearGradient id="paint0_linear_11313_1808" x1="7.8302" y1="32.2047" x2="56.0225" y2="32.2047" gradientUnits="userSpaceOnUse">
<stop stop-color="#E168FD"/>
<stop offset="1" stop-color="#7B00FC"/>
</linearGradient>
</defs>
</svg>

<svg xmlns="http://www.w3.org/2000/svg" width="64" height="65" fill="none" viewBox="0 0 64 65"><rect width="64" height="64" y=".304" fill="#fff" rx="32"/><rect width="63" height="63" x=".5" y=".804" stroke="#070B14" stroke-opacity=".15" rx="31.5"/><path fill="url(#akro_svg-a)" d="M31.92 58.883a7.6 7.6 0 0 1-3.734-1.007L11.596 48.3a7.54 7.54 0 0 1-3.766-6.526V22.618c0-2.662 1.429-5.162 3.734-6.493l16.622-9.577c2.305-1.332 5.162-1.332 7.5 0l16.59 9.577c2.305 1.331 3.733 3.831 3.733 6.493v19.188c0 2.662-1.428 5.162-3.733 6.493l-16.59 9.577c-1.169.65-2.435 1.007-3.766 1.007m0-50.745c-.844 0-1.688.228-2.435.65l-16.623 9.61a4.87 4.87 0 0 0-2.434 4.22v19.188c0 1.753.941 3.344 2.434 4.22l16.59 9.61a4.9 4.9 0 0 0 4.903 0l16.59-9.577a4.9 4.9 0 0 0 2.435-4.221v-19.22c0-1.753-.942-3.376-2.435-4.22l-16.558-9.61a5 5 0 0 0-2.467-.65m0 42.044a4 4 0 0 1-2.013-.552L17.83 42.682a4.05 4.05 0 0 1-2.013-3.506V25.248a4.06 4.06 0 0 1 2.013-3.506l12.077-6.948a4.05 4.05 0 0 1 4.026 0l12.045 6.948a4.05 4.05 0 0 1 2.012 3.506v13.928a4.09 4.09 0 0 1-2.012 3.506L33.9 49.63a3.8 3.8 0 0 1-1.98.552m0-33.992c-.357 0-.714.097-1.039.292L18.804 23.43a2.11 2.11 0 0 0-1.04 1.818v13.928c0 .746.39 1.428 1.04 1.818l12.077 6.948c.65.39 1.428.39 2.078 0l12.045-6.948a2.11 2.11 0 0 0 1.038-1.818V25.248c0-.747-.39-1.429-1.038-1.818l-12.045-6.948a1.85 1.85 0 0 0-1.04-.292m0 25.161c-.357 0-.714-.097-1.039-.26l-6.104-3.571c-.649-.357-1.039-1.071-1.039-1.786v-7.077c0-.747.39-1.429 1.04-1.786l6.103-3.539a2.15 2.15 0 0 1 2.078 0l6.103 3.54a2.02 2.02 0 0 1 1.04 1.785v7.077a2.02 2.02 0 0 1-1.04 1.786l-6.103 3.539a2 2 0 0 1-1.04.292m0-16.98q-.195 0-.39.098l-6.103 3.538a.78.78 0 0 0-.39.65v7.077c0 .26.162.52.39.682l6.103 3.539c.227.13.52.13.78 0l6.103-3.539a.83.83 0 0 0 .39-.682v-7.077a.78.78 0 0 0-.39-.65L32.31 24.47a.9.9 0 0 0-.39-.098"/><defs><linearGradient id="akro_svg-a" x1="7.83" x2="56.023" y1="32.205" y2="32.205" gradientUnits="userSpaceOnUse"><stop stop-color="#E168FD"/><stop offset="1" stop-color="#7B00FC"/></linearGradient></defs></svg>
